rospo-dark/small/devices/drive-multidisk-symbolic.svg

<?xml version="1.0" encoding="UTF-8" standalone="no"?>
<svg
   xmlns:dc="http://purl.org/dc/elements/1.1/"
   xmlns:cc="http://creativecommons.org/ns#"
   xmlns:rdf="http://www.w3.org/1999/02/22-rdf-syntax-ns#"
   xmlns:svg="http://www.w3.org/2000/svg"
   xmlns="http://www.w3.org/2000/svg"
   xmlns:sodipodi="http://sodipodi.sourceforge.net/DTD/sodipodi-0.dtd"
   xmlns:inkscape="http://www.inkscape.org/namespaces/inkscape"
   width="22"
   height="22"
   version="1.1"
   id="svg14"
   sodipodi:docname="drive-multidisk-symbolic.svg"
   inkscape:version="0.92.1 r">
  <metadata
     id="metadata20">
    <rdf:RDF>
      <cc:Work
         rdf:about="">
        <dc:format>image/svg+xml</dc:format>
        <dc:type
           rdf:resource="http://purl.org/dc/dcmitype/StillImage" />
      </cc:Work>
    </rdf:RDF>
  </metadata>
  <defs
     id="defs18" />
  <sodipodi:namedview
     pagecolor="#ffffff"
     bordercolor="#666666"
     borderopacity="1"
     objecttolerance="10"
     gridtolerance="10"
     guidetolerance="10"
     inkscape:pageopacity="0"
     inkscape:pageshadow="2"
     inkscape:window-width="769"
     inkscape:window-height="480"
     id="namedview16"
     showgrid="false"
     inkscape:zoom="10.727273"
     inkscape:cx="2.6484292"
     inkscape:cy="11"
     inkscape:window-x="0"
     inkscape:window-y="0"
     inkscape:window-maximized="0"
     inkscape:current-layer="svg14" />
  <g
     id="g4503"
     transform="translate(3,3)">
    <rect
       id="rect2"
       y="6"
       x="13"
       height="3"
       width="1"
       style="fill:#d3dae3" />
    <rect
       id="rect4"
       y="6"
       x="2"
       height="3"
       width="1"
       style="fill:#d3dae3" />
    <rect
       id="rect6"
       y="13"
       x="13"
       height="2"
       width="1"
       style="fill:#d3dae3" />
    <rect
       id="rect8"
       y="13"
       x="2"
       height="2"
       width="1"
       style="fill:#d3dae3" />
    <path
       id="path10"
       d="M 1,1 C 0.446,1 0,1.446 0,2 v 4 c 0,0.554 0.446,1 1,1 h 14 c 0.554,0 1,-0.446 1,-1 V 2 C 16,1.446 15.554,1 15,1 Z m 12,2 a 1,1 0 0 1 1,1 1,1 0 0 1 -1,1 1,1 0 0 1 -1,-1 1,1 0 0 1 1,-1 z"
       style="fill:#d3dae3"
       inkscape:connector-curvature="0" />
    <path
       id="path12"
       d="M 1,8 C 0.446,8 0,8.446 0,9 v 4 c 0,0.554 0.446,1 1,1 h 14 c 0.554,0 1,-0.446 1,-1 V 9 C 16,8.446 15.554,8 15,8 Z m 12,2 a 1,1 0 0 1 1,1 1,1 0 0 1 -1,1 1,1 0 0 1 -1,-1 1,1 0 0 1 1,-1 z"
       style="fill:#d3dae3"
       inkscape:connector-curvature="0" />
  </g>
</svg>

<svg xmlns="http://www.w3.org/2000/svg" width="16" height="16" version="1.1">
 <rect style="fill:#5c616c" width="1" height="3" x="13" y="6"/>
 <rect style="fill:#5c616c" width="1" height="3" x="2" y="6"/>
 <rect style="fill:#5c616c" width="1" height="2" x="13" y="13"/>
 <rect style="fill:#5c616c" width="1" height="2" x="2" y="13"/>
 <path style="fill:#5c616c" d="M 1 1 C 0.446 1 0 1.446 0 2 L 0 6 C 0 6.554 0.446 7 1 7 L 15 7 C 15.554 7 16 6.554 16 6 L 16 2 C 16 1.446 15.554 1 15 1 L 1 1 z M 13 3 A 1 1 0 0 1 14 4 A 1 1 0 0 1 13 5 A 1 1 0 0 1 12 4 A 1 1 0 0 1 13 3 z"/>
 <path style="fill:#5c616c" d="M 1,8 C 0.446,8 0,8.446 0,9 V 13 C 0,13.554 0.446,14 1,14 H 15 C 15.554,14 16,13.554 16,13 V 9 C 16,8.446 15.554,8 15,8 Z M 13,10 A 1,1 0 0 1 14,11 1,1 0 0 1 13,12 1,1 0 0 1 12,11 1,1 0 0 1 13,10 Z"/>
</svg>
